!! 00000] TT[WS
!!!OTL: Pan qinglang
!!!ARE: Asia, China, Shanxi Xingxian
!! Ethnic Group: Han
!! WII, 104 (1)
!!!SCT: J0551
!!!YEM: Copyright 1995, estate of Helmut Schaffrath.
**kern
*ICvox
*Ivox
*M2/4
*k[b-]
*F:
{8cc
8dd
8ff
8dd
=1
4.cc
8ff
=2
4a
8a
8g
=3
2f}
=4
{4cc
4cc
=5
4dd
4cc
=6
8f
8g
8a
16g
16a
=7
4.cc
8a}
=8
{8f
8d
4c
=9
4cc
4a
=10
8g
8f
8d
8f
=11
2c}
=12
{8f
8g
8a
16g
16a
=13
8cc
8a
8g
8f}
=14
{8f
8d
4c
=15
4cc
4a
=16
8g
8f
8d
8f
=17
2c}
==
!!!AGN: Xiaodiao. Qingge, Sichun
!!!ONB: ESAC (Essen Associative Code) Database: CHINA
!!!AMT: simple duple
!!!AIN: vox
!!!EED: Helmut Schaffrath
!!!EEV: 1.0
*-
